X: 14353
T: Gallowglass, The
R: jig
M: 6/8
K: Aminor
A/B/|:cBA eBd|cAA A2 A/B/|cBc e^fg|dBG G2 A/B/|
cBA eBd|cea e2 d|cBA ^GAB|1 c2A A2 A/B/:|2 c2A A2 e||
a^ga efd|cAA A2 A/B/|cBc e^fg|dBG G2 e|
a^ga ef/e/d|cAA e2d|cBA ^GAB|c2A A2 e|
a^ga efd|cAA A2 A/B/|cBc e^fg|dBG G2 e|
aeg fdf|ecA dBG|cBA ^GAB|c2A A2 A/B/||

